images/cloud-2.svg

<svg height="148" viewBox="0 0 573 148" width="573" xmlns="http://www.w3.org/2000/svg" xmlns:xlink="http://www.w3.org/1999/xlink"><linearGradient id="a" x1="50%" x2="50%" y1="0%" y2="100%"><stop offset="0" stop-color="#fff"/><stop offset=".9" stop-color="#cbe9ff"/></linearGradient><path d="m572.32 79c0-13.09-31.33-23.71-70-23.71-10.831359-.0312358-21.645082.8754841-32.32 2.71-7.79-32.52-80.8-58-169.73-58-74.65 0-138.08 18-161.15 43-2.333333-.04-4.683333-.06-7.05-.06-72.94-.04-132.07 19.16-132.07 42.85s59.13 42.9 132.07 42.9c31.57 0 60.55-3.6 83.27-9.6 25 5.39 54 8.47 84.93 8.47 14.9 0 29.34-.72 43.11-2.06 10.37 12.95 42 22.38 79.37 22.38 45.83 0 83-14.15 83-31.61 0-4.87-2.9-9.48-8.06-13.6h4.68c38.63.05 69.95-10.56 69.95-23.67z" fill="url(#a)" opacity=".4"/></svg>

<?xml version="1.0" encoding="UTF-8"?>
<svg width="573px" height="148px" viewBox="0 0 573 148" version="1.1" xmlns="http://www.w3.org/2000/svg" xmlns:xlink="http://www.w3.org/1999/xlink">
    <!-- Generator: Sketch 59.1 (86144) - https://sketch.com -->
    <title>Asset 1</title>
    <desc>Created with Sketch.</desc>
    <defs>
        <linearGradient x1="50%" y1="0%" x2="50%" y2="100%" id="linearGradient-1">
            <stop stop-color="#FFFFFF" offset="0%"></stop>
            <stop stop-color="#CBE9FF" offset="90%"></stop>
        </linearGradient>
    </defs>
    <g id="Page-1" stroke="none" stroke-width="1" fill="none" fill-rule="evenodd" opacity="0.5">
        <g id="M&amp;M-Under-Construction-LP:-Desktop-Copy" transform="translate(-105.000000, -62.000000)" fill="url(#linearGradient-1)" fill-rule="nonzero">
            <g id="Asset-1" transform="translate(105.000000, 62.000000)">
                <path d="M572.32,79 C572.32,65.91 540.99,55.29 502.32,55.29 C491.488641,55.2587642 480.674918,56.1654841 470,58 C462.21,25.48 389.2,0 300.27,0 C225.62,0 162.19,18 139.12,43 C136.786667,42.96 134.436667,42.94 132.07,42.94 C59.13,42.9 0,62.1 0,85.79 C0,109.48 59.13,128.69 132.07,128.69 C163.64,128.69 192.62,125.09 215.34,119.09 C240.34,124.48 269.34,127.56 300.27,127.56 C315.17,127.56 329.61,126.84 343.38,125.5 C353.75,138.45 385.38,147.88 422.75,147.88 C468.58,147.88 505.75,133.73 505.75,116.27 C505.75,111.4 502.85,106.79 497.69,102.67 C499.24,102.67 500.79,102.67 502.37,102.67 C541,102.72 572.32,92.11 572.32,79 Z" id="Path" opacity="0.8"></path>
            </g>
        </g>
    </g>
</svg>
